X:16601
T:Portobello Hornpipe
R:Hornpipe
C:Trad.
O:England
Z:Paul Hardy's Annex Tunebook 2015 (see www.paulhardy.net). Creative Commons cc by-nc-sa licenced.
M:4/4
L:1/8
Q:1/4=150
K:G
(3DEF|"G"G2 GA G2 de|dc BA GA BG|"Am"A2 A2 A2 GA|"Em"BA BG E2(3DEF|
"G"G2 GA G2 de|dc BA GA Bc|"Bm"dB GB "D"cA FG|"G"A2 G2 G2:|
|:Bc|"G"d2 de d2 ef|"Em"gf ed e4|"C"ed cB cB AG|"D"FG AF D2 B2|
"C"c2 ec "G"B2 dB|"Am"AB (3cBA "G"GA Bc|dB GB "D7"cA FG|"G"A2 G2 G2:|

